X: 17469
T: Highway To Kilkenny
R: slip jig
M: 9/8
K: Gmajor
|:G2 g gag dBG|A2B c2d ecA|G2g gag dBG|e/f/ge faf gdB:|
|:e2f g2e fdB|e2f g2a bge|g3 faf edB|dBG A3 BGE:|

